V6_wwwroot/ptn/core/icons/fa6/svgs/solid/toilets-portable.svg

<svg xmlns="http://www.w3.org/2000/svg" viewBox="0 0 576 512"><!--! Font Awesome Free 6.4.2 by @fontawesome - https://fontawesome.com License - https://fontawesome.com/license/free (Icons: CC BY 4.0, Fonts: SIL OFL 1.1, Code: MIT License) Copyright 2023 Fonticons, Inc. --><path d="M32 0H224c17.7 0 32 14.3 32 32V64H0V32C0 14.3 14.3 0 32 0zM0 96H24 232h24v24V488c0 13.3-10.7 24-24 24s-24-10.7-24-24v-8H48v8c0 13.3-10.7 24-24 24s-24-10.7-24-24V120 96zM192 224c-8.8 0-16 7.2-16 16v64c0 8.8 7.2 16 16 16s16-7.2 16-16V240c0-8.8-7.2-16-16-16zM352 0H544c17.7 0 32 14.3 32 32V64H320V32c0-17.7 14.3-32 32-32zM320 96h24H552h24v24V488c0 13.3-10.7 24-24 24s-24-10.7-24-24v-8H368v8c0 13.3-10.7 24-24 24s-24-10.7-24-24V120 96zM512 224c-8.8 0-16 7.2-16 16v64c0 8.8 7.2 16 16 16s16-7.2 16-16V240c0-8.8-7.2-16-16-16z"/></svg>

<svg xmlns="http://www.w3.org/2000/svg" viewBox="0 0 576 512"><!--! Font Awesome Free 6.1.1 by @fontawesome - https://fontawesome.com License - https://fontawesome.com/license/free (Icons: CC BY 4.0, Fonts: SIL OFL 1.1, Code: MIT License) Copyright 2022 Fonticons, Inc. --><path d="M224 0C241.7 0 256 14.33 256 32V64H0V32C0 14.33 14.33 0 32 0H224zM0 96H256V488C256 501.3 245.3 512 232 512C218.7 512 208 501.3 208 488V480H48V488C48 501.3 37.25 512 24 512C10.75 512 0 501.3 0 488V96zM176 240V304C176 312.8 183.2 320 192 320C200.8 320 208 312.8 208 304V240C208 231.2 200.8 224 192 224C183.2 224 176 231.2 176 240zM544 0C561.7 0 576 14.33 576 32V64H320V32C320 14.33 334.3 0 352 0H544zM320 96H576V488C576 501.3 565.3 512 552 512C538.7 512 528 501.3 528 488V480H368V488C368 501.3 357.3 512 344 512C330.7 512 320 501.3 320 488V96zM496 240V304C496 312.8 503.2 320 512 320C520.8 320 528 312.8 528 304V240C528 231.2 520.8 224 512 224C503.2 224 496 231.2 496 240z"/></svg>
